X:1
T:Title
%%score { ( 1 3 ) | ( 2 4 ) }
L:1/8
M:4/4
K:Eb
V:1 treble nm="Grand Piano"
V:3 treble 
V:2 bass 
V:4 bass 
V:1
 z4 z2[Q:1/4=90] [EG][FA] | [GB]>[_G=A] [=GB][_Gc] [=GB]2 E>E | F6 [EG]>[FA] | [EG]6 [EG][FA] | %4
 z4 B2 z2 | [DB]6 BB |[M:3/4] c>c c[=Ec] c2 |[M:1/4] AA |[M:4/4] B>B B[DB] B2 GG | %9
 A>A AA [DA]2 [DG]>[DF] | [EG]6 [Ee]>[Ec] | B6 BB | %12
[M:9/8] z3 z B2- B z z[Q:1/4=89][Q:1/4=87][Q:1/4=86][Q:1/4=85][Q:1/4=83] | %13
[M:3/4] E6[Q:1/4=82][Q:1/4=81][Q:1/4=79][Q:1/4=78][Q:1/4=77][Q:1/4=75][Q:1/4=74][Q:1/4=73][Q:1/4=71][Q:1/4=70][Q:1/4=69] |] %14
V:2
 z4 z2 [E,B,][E,B,] | [E,E]>[E,C] [E,B,][E,=A,] [E,B,]2 [G,B,]>[G,B,] | [B,D]6 [B,,B,]>[B,,B,] | %3
 [E,B,]6 [E,B,][E,B,] | [E,E]>[E,C] [E,B,][E,=A,] z G, [C,G,]>[F,A,] | [B,,B,]6 [E,G,E][E,G,E] | %6
[M:3/4] [A,E]>[A,E] [G,B,=E][C,B,] [F,A,F]2 |[M:1/4] [F,C][F,B,D] | %8
[M:4/4] [G,B,E]>[G,B,E] [F,A,C][B,,A,] [E,G,E]2 [E,B,E][=E,B,_D] | %9
 [F,A,C]>[F,A,C] [F,CF][F,=B,E] [B,,_B,]2 [B,,B,]>[B,,B,] | [E,B,]6 [A,,C]>[C,A,] | %11
 [E,G,E]6 [E,G,E][E,G,E] |[M:9/8][K:treble] z3 z .[B,E]2 z3[K:bass] |[M:3/4] [E,G,B,]6 |] %14
V:3
 x8 | x8 | x8 | x8 | [GB]>[_G=A] [=GB][_Gc] [B,=G]E [Ee]>[Ec] | x8 |[M:3/4] x6 |[M:1/4] x2 | %8
[M:4/4] x8 | x8 | x8 | x8 |[M:9/8] ced- d<.cB,- B,E>F |[M:3/4] x6 |] %14
V:4
 x8 | x8 | x8 | x8 | z4 E,2 z2 | x8 |[M:3/4] x6 |[M:1/4] x2 |[M:4/4] x8 | x8 | x8 | x8 | %12
[M:9/8][K:treble] [A,E][A,CE][A,CE]- [A,CE]/[=A,C_G]/ =G2- G[K:bass][B,,G,]>[B,,A,B,] | %13
[M:3/4] x6 |] %14

